Gurmukhi/0A21.svg

<svg enable-background="new 0 0 336 592" viewBox="0 0 336 592" xmlns="http://www.w3.org/2000/svg"><path d="m179.083801 258.672943c2.322144.630646 4.459122.815338 6.118027 1.802979 5.118958 3.047729 8.840225.836547 12.279358-2.808197 10.030579-10.63031 12.276153-23.174073 9.166641-37.089631-.825867-3.695953-3.496857-3.403839-6.186416-3.403656-29.829102.001893-59.658204-.000167-89.487305-.002899-6.832359-.000625-13.667206-.117569-20.495979.036789-3.135613.070877-4.985703-1.091461-6.007569-4.047622-1.359421-3.932648-3.016456-7.762131-4.386589-11.691422-1.233971-3.538818-.302002-5.931473 3.872353-6.151016 1.995125-.10495 3.993423-.212067 5.990295-.21225 55.325478-.005157 110.650948-.00003 165.976433.012207 12.104385.00267 12.104172.018173 16.544479 11.458786.240998.620972.505158 1.233307.733643 1.858765 2.624725 7.185302 1.615784 8.695709-5.873413 8.710678-9.498627.018967-18.997376-.011017-28.49585.030578-1.954758.008561-3.986709-.280685-6.257675.924454 4.234482 22.435364-4.184906 39.624253-22.803284 52.437332 1.009384 2.322937 3.081314 3.113617 4.796921 4.254975 20.250977 13.472412 31.775055 31.923553 31.706207 56.657715-.057693 20.725097-9.244583 36.766967-26.268112 48.354888-27.985657 19.049836-74.920685 18.511963-101.698189-1.075744-17.545799-12.834717-22.977066-34.574433-12.32975-51.541687 8.189835-13.051117 21.088448-18.66333 35.915314-19.415527 30.070877-1.525574 52.511704 12.987884 71.093536 35.05368.964692 1.145569 1.871232 2.340149 2.841202 3.481049.198105.232971.559601.327087 1.352158.765075 3.906906-6.771515 5.962936-14.004242 5.384353-21.752136-1.382644-18.515411-10.424087-32.246063-26.479034-41.537415-3.916885-2.266784-7.558365-2.221679-11.869141-1.185424-19.109085 4.593658-38.370452 6.505462-57.803085 1.762146-2.625816-.640961-5.044815-1.716553-7.329002-3.099366-8.818627-5.338653-8.687264-16.322357.282409-21.476471 6.085869-3.497039 12.920891-4.46054 19.710076-4.896347 13.360748-.857589 26.583191.531235 40.006988 3.784714m5.908768 79.82193c-10.920776-6.990753-22.598175-11.121979-35.831757-10.222321-12.712982.86435-22.733589 8.624146-24.645736 19.559235-1.595177 9.122406 5.100113 18.351044 16.807373 23.313477 9.17511 3.889068 18.827911 4.117096 28.488189 3.461578 11.979844-.812958 23.129471-4.378815 33.261811-11.063782 3.782303-2.495392 3.905761-4.50534.889267-7.791809-5.652268-6.158172-11.487732-12.0578-18.969147-17.256378z"/></svg>

<svg version="1.1" id="Layer_1" xmlns="http://www.w3.org/2000/svg" xmlns:xlink="http://www.w3.org/1999/xlink" x="0px" y="0px"
	 width="100%" viewBox="0 0 336 592" enable-background="new 0 0 336 592" xml:space="preserve">
<path fill="#000000" opacity="1.000000" stroke="none" 
	d="
M179.083801,258.672943 
	C181.405945,259.303589 183.542923,259.488281 185.201828,260.475922 
	C190.320786,263.523651 194.042053,261.312469 197.481186,257.667725 
	C207.511765,247.037415 209.757339,234.493652 206.647827,220.578094 
	C205.821960,216.882141 203.150970,217.174255 200.461411,217.174438 
	C170.632309,217.176331 140.803207,217.174271 110.974106,217.171539 
	C104.141747,217.170914 97.306900,217.053970 90.478127,217.208328 
	C87.342514,217.279205 85.492424,216.116867 84.470558,213.160706 
	C83.111137,209.228058 81.454102,205.398575 80.083969,201.469284 
	C78.849998,197.930466 79.781967,195.537811 83.956322,195.318268 
	C85.951447,195.213318 87.949745,195.106201 89.946617,195.106018 
	C145.272095,195.100861 200.597565,195.105988 255.923050,195.118225 
	C268.027435,195.120895 268.027222,195.136398 272.467529,206.577011 
	C272.708527,207.197983 272.972687,207.810318 273.201172,208.435776 
	C275.825897,215.621078 274.816956,217.131485 267.327759,217.146454 
	C257.829132,217.165421 248.330383,217.135437 238.831909,217.177032 
	C236.877151,217.185593 234.845200,216.896347 232.574234,218.101486 
	C236.808716,240.536850 228.389328,257.725739 209.770950,270.538818 
	C210.780334,272.861755 212.852264,273.652435 214.567871,274.793793 
	C234.818848,288.266205 246.342926,306.717346 246.274078,331.451508 
	C246.216385,352.176605 237.029495,368.218475 220.005966,379.806396 
	C192.020309,398.856232 145.085281,398.318359 118.307777,378.730652 
	C100.761978,365.895935 95.330711,344.156219 105.978027,327.188965 
	C114.167862,314.137848 127.066475,308.525635 141.893341,307.773438 
	C171.964218,306.247864 194.405045,320.761322 212.986877,342.827118 
	C213.951569,343.972687 214.858109,345.167267 215.828079,346.308167 
	C216.026184,346.541138 216.387680,346.635254 217.180237,347.073242 
	C221.087143,340.301727 223.143173,333.069000 222.564590,325.321106 
	C221.181946,306.805695 212.140503,293.075043 196.085556,283.783691 
	C192.168671,281.516907 188.527191,281.562012 184.216415,282.598267 
	C165.107330,287.191925 145.845963,289.103729 126.413330,284.360413 
	C123.787514,283.719452 121.368515,282.643860 119.084328,281.261047 
	C110.265701,275.922394 110.397064,264.938690 119.366737,259.784576 
	C125.452606,256.287537 132.287628,255.324036 139.076813,254.888229 
	C152.437561,254.030640 165.660004,255.419464 179.083801,258.672943 
M184.992569,338.494873 
	C174.071793,331.504120 162.394394,327.372894 149.160812,328.272552 
	C136.447830,329.136902 126.427223,336.896698 124.515076,347.831787 
	C122.919899,356.954193 129.615189,366.182831 141.322449,371.145264 
	C150.497559,375.034332 160.150360,375.262360 169.810638,374.606842 
	C181.790482,373.793884 192.940109,370.228027 203.072449,363.543060 
	C206.854752,361.047668 206.978210,359.037720 203.961716,355.751251 
	C198.309448,349.593079 192.473984,343.693451 184.992569,338.494873 
z"/>
</svg>
